X: 30152
M: 2/4
L: 1/16
K: Bb
|: de |\
.f2.f2.f2.f2 | fedc B2 ef | .g2.g2.g2.g2 | gfed c2 de |\
f2fg e2ef | d2de c2dc | BABc dBcA | B2B2B2 :|


